packages/ui-icons/src/Basic/32/Museum_32.svg

<svg xmlns="http://www.w3.org/2000/svg" viewBox="0 0 40 40"><path d="M36.42 16.11h.77l.81-2.24L20 4 2 13.87l.84 2.25H4v15.93H2V34h16.07V23.9a1.9 1.9 0 0 1 3.81 0V34H38v-1.95h-2V16.11ZM10 32.05H6V16.11h4Zm18 0h-4.12V23.9a3.9 3.9 0 0 0-7.81 0v8.15H12V16.11h16Zm6 0h-4V16.11h4ZM5 14.11l15-7.82 15 7.82Z"/></svg>

<svg id="Ready" xmlns="http://www.w3.org/2000/svg" viewBox="0 0 40 40"><title>Megaicons_work_32_1.8_cp</title><path d="M36.42,16.11h.77L38,13.87,20,4,2,13.87l.84,2.25H4V32.05H2V34H18.07V23.9a1.9,1.9,0,0,1,3.81,0V34H38V32.05H36V16.11ZM10,32.05H6V16.11h4Zm18,0H23.88V23.9a3.9,3.9,0,0,0-7.81,0v8.15H12V16.11H28Zm6,0H30V16.11h4ZM5,14.11,20,6.29l15,7.82Z"/></svg>
